!!!OTL: WENN ICH DEN WANDRER FRAGE
!!!ARE: Europa, Mitteleuropa, Deutschland
!!!SCT: F0459
!!!YEM: Copyright 1995, estate of Helmut Schaffrath.
**kern
*ICvox
*Ivox
*M4/4
*k[]
*C:
=1
{4E
8.E
16D
4C
4E
=2
2A
4G
4r}
=3
{2G
4G
4G
=4
2d
4r}
{4G
=5
2G
4E
4c
=6
2e
4c}
{4A
=7
4.G
8G
8B
8A
8G
8F
=8
2E
4r}
{4G
=9
2G
4E
4c
=10
2e
4c}
{4A
=11
4.G
8G
4G
4G
=12
2.G
4r}
==
!!!AGN: Heimat - Lied, Heimweh
!!!ONB: ESAC (Essen Associative Code) Database: FINK
!!!AMT: simple quadruple
!!!AIN: vox
!!!EED: Helmut Schaffrath
!!!EEV: 1.0
*-
